modules/coreui-icons-free/icons/mood-bad.svg

<!-- Generated by IcoMoon.io -->
<svg version="1.1" xmlns="http://www.w3.org/2000/svg" width="24" height="24" viewBox="0 0 24 24">
<title>mood-bad</title>
<path d="M12 0.75c-6.213 0-11.25 5.037-11.25 11.25s5.037 11.25 11.25 11.25 11.25-5.037 11.25-11.25-5.037-11.25-11.25-11.25zM18.894 18.894c-1.757 1.752-4.182 2.835-6.859 2.835-5.365 0-9.715-4.349-9.715-9.715s4.349-9.715 9.715-9.715c5.365 0 9.715 4.349 9.715 9.715 0 1.365-0.282 2.664-0.79 3.843l0.024-0.063c-0.517 1.205-1.222 2.234-2.090 3.099l-0 0z"></path>
<path d="M7.125 9.375h1.875v1.875h-1.875v-1.875z"></path>
<path d="M15 9.375h1.875v1.875h-1.875v-1.875z"></path>
<path d="M12 13.125c-2.692 0-4.875 2.183-4.875 4.875v0h9.75c0-2.692-2.183-4.875-4.875-4.875v0z"></path>
</svg>

<svg xmlns="http://www.w3.org/2000/svg" width="24" height="24" viewBox="0 0 24 24"><path d="M12 .75C5.787.75.75 5.787.75 12S5.787 23.25 12 23.25 23.25 18.213 23.25 12 18.213.75 12 .75zm6.894 18.144a9.684 9.684 0 01-6.859 2.835c-5.365 0-9.715-4.349-9.715-9.715s4.349-9.715 9.715-9.715c5.365 0 9.715 4.349 9.715 9.715a9.688 9.688 0 01-.79 3.843l.024-.063a9.768 9.768 0 01-2.09 3.099z"/><path d="M7.125 9.375H9v1.875H7.125V9.375zM15 9.375h1.875v1.875H15V9.375zM12 13.125A4.875 4.875 0 007.125 18h9.75A4.875 4.875 0 0012 13.125z"/></svg>
